X:590
T:Gillie Callum
T:The Sword Dance
B:Kerr's Merry Melodies Bk.1
Z:Nigel Gatherer
L:1/8
M:4/4
K:A
A<Ac>A d2 B>=G | A<Ac>A e2 cA  | e2  cA  d2 B=G | A<Ace  d<B e2 :|
A<Ace =g2 dB   | A<Ace  a>ba>f | =g>ag>e d<gB<G | A<Ace  d<B e2  |
A<Ace =g2 dB   | A<Ace  a>ba>f | =g>ag>e d<gB<G | A>a=ge d<B e2 |]
<end>
<start>
